src/icons/diff-ignored.svg

<svg width="16" height="16" xmlns="http://www.w3.org/2000/svg"><path fill-rule="evenodd" clip-rule="evenodd" d="M1.5 1h13l.5.5v13l-.5.5h-13l-.5-.5v-13l.5-.5zM2 14h12V2H2v12zm8-10h2v2l-6 6H4v-2l6-6z"/></svg>

<svg width="16" height="16" viewBox="0 0 16 16" fill="none" xmlns="http://www.w3.org/2000/svg">
<path fill-rule="evenodd" clip-rule="evenodd" d="M1.5 1H14.5L15 1.5V14.5L14.5 15H1.5L1 14.5V1.5L1.5 1ZM2 14H14V2H2V14ZM10 4H12V6L6 12H4V10L10 4Z" fill="white"/>
</svg>
